X:120
T:Alborada de Santa Maria
T:Alborada da Lanzada
A:Galicia
M:2/4
O:Spain
R:Alborada
Z:Richard Robinson 
%%TUNEURL: http://www.leeds.ac.uk/music/Info/RRTuneBk/gettune/00000c0c.html
%%ID:00000c0c
K:D
F2A2|\
d4 dedc| d2A2 F2A2| d4 dedc| d2A2 F2A2|\
G4 GFEG| F3B A3d| c3B AGFE |1 D4 :|2 D8|:
A3F DEFG | F3G A4| GAGF EFGE| F3A D4|\
A3F DEFG| F3G A4| G3F EDEF| D8 ::
F6 G2| A6 d2| c2e2 d2B2| A8|\
F6 G2| A6 d2| c2e2 d2B2| A8|\
d6 B2| G3A B2d2| c6 A2| F3G A2c2| \
B6 G2| E3F G2A2| F4 ABAB|1 A8 :|2 A4 FAFA||\
d4 ABAB| A4 FAFA| d4 dcBc| d4 dcBc||\
dedc BcdB| cdcB ABcA| BcBA GABG| ABAG FGAF|\
GAGF EFGE| FGFE DEFD| EFED CDEC| D4|]
